Numix/64/mimetypes/application-video.svg

<svg xmlns="http://www.w3.org/2000/svg" xmlns:xlink="http://www.w3.org/1999/xlink" width="64px" height="64px" viewBox="0 0 64 64" version="1.1">
<g id="surface1">
<path style=" stroke:none;fill-rule:nonzero;fill:rgb(18.431373%,13.72549%,56.078431%);fill-opacity:1;" d="M 10.671875 0 C 9.296875 0 8 1.355469 8 2.789062 L 8 61.210938 C 8 62.566406 9.375 64 10.671875 64 L 53.328125 64 C 54.625 64 56 62.566406 56 61.210938 L 56 18 L 38 0 Z M 10.671875 0 "/>
<path style=" stroke:none;fill-rule:nonzero;fill:rgb(0%,0%,0%);fill-opacity:0.196078;" d="M 42 18 L 56 32 L 56 18 Z M 42 18 "/>
<path style=" stroke:none;fill-rule:nonzero;fill:rgb(100%,100%,100%);fill-opacity:0.392157;" d="M 38 0 L 55.984375 18 L 40.757812 18 C 39.410156 18 38 16.574219 38 15.226562 Z M 38 0 "/>
<path style=" stroke:none;fill-rule:nonzero;fill:rgb(100%,100%,100%);fill-opacity:1;" d="M 32 22 C 24.289062 22 18 28.285156 18 35.996094 C 18 43.707031 24.289062 50 32 50 C 39.710938 50 46 43.707031 46 35.996094 C 46 28.285156 39.710938 22 32 22 Z M 32 25.496094 C 37.816406 25.496094 42.496094 30.179688 42.496094 35.996094 C 42.496094 41.820312 37.816406 46.496094 32 46.496094 C 26.183594 46.496094 21.503906 41.820312 21.503906 35.996094 C 21.503906 30.179688 26.183594 25.496094 32 25.496094 Z M 28 29.992188 L 28 41.996094 L 38 35.996094 Z M 28 29.992188 "/>
</g>
</svg>

<svg xmlns="http://www.w3.org/2000/svg" viewBox="0 0 64 64">
 <g>
  <path d="m 10.672 0 c -1.375 0 -2.672 1.355 -2.672 2.789 l 0 58.42 c 0 1.355 1.375 2.789 2.672 2.789 l 42.656 0 c 1.297 0 2.672 -1.434 2.672 -2.789 l 0 -43.21 l -18 -18 m -27.328 0" style="fill:#2f228e;fill-opacity:1;stroke:none;fill-rule:nonzero"/>
  <path d="m 42 18 l 14 14 l 0 -14 m -14 0" style="fill:#000;fill-opacity:0.196;stroke:none;fill-rule:nonzero"/>
  <path d="m 38 0 l 17.984 18 l -15.227 0 c -1.348 0 -2.758 -1.426 -2.758 -2.773 m 0 -15.227" style="fill:#fff;fill-opacity:0.392;stroke:none;fill-rule:nonzero"/>
  <path d="m 32 22 c -7.711 0 -14 6.285 -14 13.996 c 0 7.711 6.289 14 14 14 c 7.711 0 14 -6.293 14 -14 c 0 -7.711 -6.289 -13.996 -14 -13.996 m 0 3.496 c 5.816 0 10.496 4.684 10.496 10.5 c 0 5.824 -4.68 10.5 -10.496 10.5 c -5.816 0 -10.496 -4.676 -10.496 -10.5 c 0 -5.816 4.68 -10.5 10.496 -10.5 m -4 4.496 l 0 12 l 10 -6 m -10 -6" style="fill:#fff;fill-opacity:1;stroke:none;fill-rule:nonzero"/>
 </g>
</svg>
